!!!COM: Beethoven, Ludwig van
!!!CDT: 1770///-1827///
!!!ODT: 1798///-1800///
!!!OTL: String Quartet No. 6 in B-flat Major, Op. 18, No. 6
!!!OPS: Op. 18
!!!ONM: No. 6
!!!OMV: Mvmt. 2
!!!OMD: Adagio ma non troppo
!!!PDT: 1801///
!!!PPP: Vienna
!!!PPR: C. Haslinger qm Tobias
!!!ODE: Dem F&uuml;rsten von Lobkowitz gewidmet
!!!MPD: 1798///-1800///
**kern	**dynam	**kern	**dynam	**kern	**dynam	**kern	**dynam
*staff4	*staff4	*staff3	*staff3	*staff2	*staff2	*staff1	*staff1
*Icello	*Icello	*Iviola	*Iviola	*Ivioln	*Ivioln	*Ivioln	*Ivioln
*clefF4	*clefF4	*clefC3	*clefC3	*clefG2	*clefG2	*clefG2	*clefG2
*k[b-e-a-]	*k[b-e-a-]	*k[b-e-a-]	*k[b-e-a-]	*k[b-e-a-]	*k[b-e-a-]	*k[b-e-a-]	*k[b-e-a-]
*E-:	*E-:	*E-:	*E-:	*E-:	*E-:	*E-:	*E-:
*M2/4	*M2/4	*M2/4	*M2/4	*M2/4	*M2/4	*M2/4	*M2/4
*MM24	*MM24	*MM24	*MM24	*MM24	*MM24	*MM24	*MM24
=1-	=1-	=1-	=1-	=1-	=1-	=1-	=1-
8E-\	p	8B-/	p	8G/ 8e-/	p	(16ee-\LL	p
.	.	.	.	.	.	16gg\)	.
8r	.	8r	.	8r	.	16gg\	.
.	.	.	.	.	.	16gg\JJ	.
8E-\	.	8e-\	.	8B-/ 8g/	.	(16gg\LL	.
.	.	.	.	.	.	16bb-\)	.
8r	.	8r	.	8r	.	16bb-\	.
.	.	.	.	.	.	16bb-\JJ	.
=2	=2	=2	=2	=2	=2	=2	=2
8D\	.	8f\	.	8B-/ 8a-/	.	(16bb-\LL	.
.	.	.	.	.	.	16aa-\)	.
8r	.	8r	.	8r	.	(16aa-\	.
.	.	.	.	.	.	16ff\JJ)	.
8A-\	.	8d\	.	8B-/ 8f/	.	(16ff\LL	.
.	.	.	.	.	.	16dd\)	.
8r	.	8r	.	8r	.	(16dd\	.
.	.	.	.	.	.	16b-\JJ)	.
=3	=3	=3	=3	=3	=3	=3	=3
8G\	.	8B-/	.	8e-/	.	(16b-\LL	.
.	.	.	.	.	.	16ee-\JJ)	.
8r	.	8r	.	8r	.	16ee-\LL	.
.	.	.	.	.	.	(64dd\LL	.
.	.	.	.	.	.	64ee-\	.
.	.	.	.	.	.	64ff\	.
.	.	.	.	.	.	64ee-\JJJJ)	.
8D\	.	8B-/	.	8f/	.	(16b-\LL	.
.	.	.	.	.	.	16ff\JJ)	.
8r	.	8r	.	8r	.	16ff\LL	.
.	.	.	.	.	.	(64een\LL	.
.	.	.	.	.	.	64ff\	.
.	.	.	.	.	.	64gg\	.
.	.	.	.	.	.	64ff\JJJJ)	.
=4	=4	=4	=4	=4	=4	=4	=4
16E-/LK	.	16e-\LK	.	16B-/LK 16g/	.	16b-\LL	.
16r	.	16r	.	16r	.	(64ff#\LL	.
.	.	.	.	.	.	64gg\	.
.	.	.	.	.	.	64aa-\	.
.	.	.	.	.	.	64gg\JJJJ)	.
16AA-/k	.	16f\k	.	16c/k 16a-/	.	16cc\LL	.
16r	.	16r	.	16r	.	(32aa-\L	.
.	.	.	.	.	.	64bb-\L	.
.	.	.	.	.	.	64ccc\JJJJ)	.
16BB-/Jk	.	16d\Jk	.	16B-/L 16f/	.	8ff\	.
16r	.	16r	.	32b-/L	.	.	.
.	.	.	.	32b-/JJJ	.	.	.
8r	.	8r	.	(32an/LLL	.	8r	.
.	.	.	.	32a-/	.	.	.
.	.	.	.	32g/)	.	.	.
.	.	.	.	32f/JJJ	.	.	.
=5	=5	=5	=5	=5	=5	=5	=5
8EE-/	p	(16G/LL	p	(16e-/LL	p	4r	.
.	.	16B-/)	.	16g/)	.	.	.
8r	.	(16B-/	.	(16g/	.	.	.
.	.	16B-/JJ)	.	16g/JJ)	.	.	.
16E-\LL	.	(16B-/LL	.	(16g/LL	.	[8bb-\L	p
16G\	.	16B-/	.	16b-/)	.	.	.
16G\	.	16B-/	.	(16b-/	.	(32bb-\LL]	.
.	.	.	.	.	.	32gg\	.
16G\JJ	.	16B-/JJ)	.	16b-/JJ)	.	32ff\	.
.	.	.	.	.	.	32ee-\JJJ)	.
=6	=6	=6	=6	=6	=6	=6	=6
16G\LL	.	8.B-/L	.	(16b-/LL	.	16ee-\LL	.
16F\	.	.	.	16a-/JJ)	.	[16dd\JJ	.
16F\	.	.	.	(16a-/LL	.	(32dd\LLL]	.
.	.	.	.	.	.	32ee-\	.
16D\JJ	.	16B-/Jk	.	16f/JJ)	.	32ff\	.
.	.	.	.	.	.	32gg\JJ)	.
16D/LL	.	(16B-/LL	.	(16f/LL	.	[8aa-\J	.
16BB-/	.	16F/JJ)	.	16d/JJ)	.	.	.
16BB-/	.	(16F/LL	.	(16d/LL	.	(32aa-\LLL]	.
.	.	.	.	.	.	32ff\)	.
16AA-/JJ	.	16D/JJ)	.	16B-/JJ)	.	32bb-\	.
.	.	.	.	.	.	32bb-\JJJ	.
=7	=7	=7	=7	=7	=7	=7	=7
4GG/	.	([4E-/ 4B-/	.	(16B-/LL	.	(16.bb-\LL	.
.	.	.	.	16e-/JJ)	.	.	.
.	.	.	.	.	.	32gg\k)	.
.	.	.	.	16e-/LL	.	16ee-\JJ	.
.	.	.	.	(64d/LL	.	16r	.
.	.	.	.	64e-/	.	.	.
.	.	.	.	64f/	.	.	.
.	.	.	.	64e-/JJJJ)	.	.	.
4AA-/	.	4E-/]) 4c/	.	(16c/LL	.	(16.ccc\LL	.
.	.	.	.	16a-/JJ)	.	.	.
.	.	.	.	.	.	32aa-\k)	.
.	.	.	.	16a-/LL	.	16ff\JJ	.
.	.	.	.	(64g/LL	.	16r	.
.	.	.	.	64a-/	.	.	.
.	.	.	.	64b-/	.	.	.
.	.	.	.	64a-/JJJJ)	.	.	.
=8	=8	=8	=8	=8	=8	=8	=8
16BB-/LK	.	16B-/LK	.	16g/LL	.	16r	.
16r	.	16r	.	(64an/LL	.	16ee-\LK	.
.	.	.	.	64b-/	.	.	.
.	.	.	.	64cc/	.	.	.
.	.	.	.	64b-/JJJJ)	.	.	.
16BB-/Jk	.	16A-/Jk	.	16f/LL	.	16r	.
16r	.	16r	.	(64an/LL	.	16dd\Jk	.
.	.	.	.	64b-/	.	.	.
.	.	.	.	64cc/	.	.	.
.	.	.	.	64b-/JJJJ)	.	.	.
8E-\	.	8G/	.	8e-/	.	8ee-\L	.
8r	.	8r	.	8r	.	16r	.
.	.	.	.	.	.	16b-\Jk	.
=9	=9	=9	=9	=9	=9	=9	=9
16.BB-/LL	.	(16.D/LL	.	(16.a-/LL	.	(16.ff\LL	.
32BB-/k	.	32E-/k)	.	32g/k)	.	32ee-\k)	.
16BB-/	.	(16F/	.	(16f/	.	(16dd\	.
16BB-/JJ	.	16G/JJ)	.	16e-/JJ)	.	16cc\JJ)	.
8.BB-/L	.	8.A-/L	.	8.d/L	.	8.b-\L	.
16BB-/Jk	.	16G/Jk	.	16en/Jk	.	16b-\Jk	.
=10	=10	=10	=10	=10	=10	=10	=10
16BB-/LL	.	(16A-/LL	.	(16f/LL	.	(16b-\LL	.
16BB-/	.	16F/)	.	16d/)	.	16b-\)	.
16BB-/	.	(16G/	.	(16e-/	.	(16b-\	.
16BB-/JJ	.	16An/JJ)	.	16e-/JJ)	.	16cc\JJ)	.
8BB-/	.	8B-/	.	(16.d/LL	.	(16.f/LL	.
.	.	.	.	64e-/LL	.	64g/LL	.
.	.	.	.	64f/JJJJ)	.	64an/JJJJ)	.
8r	.	8r	.	48g/LLL	.	48b-\LLL	.
.	.	.	.	48an/	.	48cc\	.
.	.	.	.	48b-/JJJ	.	48dd\JJJ	.
.	.	.	.	48cc\LLL	.	48ee-\LLL	.
.	.	.	.	48dd\	.	48ff\	.
.	.	.	.	48ee-\JJJ	.	48gg\JJJ	.
=11	=11	=11	=11	=11	=11	=11	=11
16.B-\LL	.	(16.d\LL	.	(16.ff\LL	.	(16.aa-\LL	.
32c\k	.	32e-\k)	.	32ee-\k)	.	32gg\k)	.
16d\	.	(16f\	.	(16dd\	.	(16ff\	.
16e-\JJ	.	16g\JJ)	.	16cc\JJ)	.	16ee-\JJ)	.
8.f\L	.	8.a-\L	.	(16b-\LL	.	8.dd\L	<
.	.	.	.	16cc-\	<	.	.
.	.	.	.	16b-\)	>	.	.
16f\Jk	<	16a-\Jk	<	16b-\JJ	.	(16dd\Jk	>
=12	=12	=12	=12	=12	=12	=12	=12
8e-\L	.	(8g\L	.	(8b-\L	.	(16.ee-\LL)	.
.	.	.	.	.	.	32ff\JJk)	<
8c\	<	8e-\	<	8ee-\	<	(16.gg\LL	.
.	.	.	.	.	.	32aan\JJk)	.
8B-\J	>	8f\J)	>	8dd\J)	>	(16.ccc\LL	.
.	.	.	.	.	.	32bb-\JJk	>
8r	.	8r	.	8r	.	32aan\LLL	.
.	.	.	.	.	.	32aa-\	.
.	.	.	.	.	.	32gg\	.
.	.	.	.	.	.	32ee-\JJJ)	.
=13	=13	=13	=13	=13	=13	=13	=13
4r	.	8r	.	2G/ 2e-/	p	(16ee-\LL	p
.	.	.	.	.	.	16gg\)	.
.	.	32.r	.	.	.	16gg\JJ	.
.	.	64e-/LLLK	p	.	.	.	.
.	.	32.B-/	.	.	.	(64g\LLLL	.
.	.	.	.	.	.	64b-\	.
.	.	.	.	.	.	64ee-\	.
.	.	64G/JJJk	.	.	.	64gg\JJJJ)	.
8r	.	8E-/	.	.	.	(16gg\LL	.
.	.	.	.	.	.	16bb-\)	.
32.r	.	8r	.	.	.	16bb-\JJ	.
64BB-/LLLK	p	.	.	.	.	.	.
32.GG/	.	.	.	.	.	(64b-\LLLL	.
.	.	.	.	.	.	64ee-\	.
.	.	.	.	.	.	64gg\)	.
64EE-/JJJk	.	.	.	.	.	64bb-\JJJJ	.
=14	=14	=14	=14	=14	=14	=14	=14
8DD/L	.	8r	.	([4B-/ 4f/	.	(16bb-\LL	.
.	.	.	.	.	.	32aa-\Jk)	.
.	.	.	.	.	.	64r	.
.	.	.	.	.	.	64aa-\Jkkk	.
8r	.	32.r	.	.	.	(16aa-\LL	.
.	.	64f\LLLK	.	.	.	.	.
.	.	32.d\	.	.	.	32ff\Jk)	.
.	.	.	.	.	.	64r	.
.	.	64B-\JJJk	.	.	.	64ff\Jkkk	.
8r	.	8A-/	.	4B-/]) 4d/	.	(16ff\LL	.
.	.	.	.	.	.	32dd\Jk)	.
.	.	.	.	.	.	64r	.
.	.	.	.	.	.	64dd\Jkkk	.
32.r	.	8r	.	.	.	(16dd\LL	.
64AA-/LLK	.	.	.	.	.	.	.
32.BB-/	.	.	.	.	.	32b-\Jk)	.
.	.	.	.	.	.	64r	.
64FF/JJJk	.	.	.	.	.	64b-\Jkkk	.
=15	=15	=15	=15	=15	=15	=15	=15
*	*	*	*	*^	*	*	*
8GG/L	.	8r	.	[4e-/	[8B-\L	.	(16b-\LL	.
.	.	.	.	.	.	.	16ee-\JJ)	.
8r	.	32.r	.	.	32.B-\LL]	.	16ee-\LL	.
.	.	64E-/LLLK	.	.	64G\k	.	.	.
.	.	32.F/	.	.	32.A-\	.	(64dd\LL	.
.	.	.	.	.	.	.	64ee-\	.
.	.	.	.	.	.	.	64ff\	.
.	.	64G/JJJk	.	.	64B-\JJJk	.	64ee-\JJJJ)	.
8r	.	8A-/	.	8e-/L]	[8c\L	.	(16cc\LL	.
.	.	.	.	.	.	.	16aa-\JJ)	.
32.r	.	8r	.	8f/J	32.c\LL]	.	16aa-\LL	.
64FF/LLK	.	.	.	.	64A-\k	.	.	.
32.AA-/	.	.	.	.	32.c\	.	(64gg\LL	.
.	.	.	.	.	.	.	64aa-\	.
.	.	.	.	.	.	.	64bb-\	.
64FF/JJJk	.	.	.	.	64A-\JJJk	.	64aa-\JJJJ)	.
*	*	*	*	*v	*v	*	*	*
=16	=16	=16	=16	=16	=16	=16	=16
16BB-/LK	.	16B-/LK	.	16e-/LK	.	16gg\LL	.
16r	.	16r	.	16r	.	(64aan\LL	.
.	.	.	.	.	.	64bb-\	.
.	.	.	.	.	.	64aan\	.
.	.	.	.	.	.	64gg\JJJJ)	.
16BB-/Jk	.	16A-/Jk	.	16d/Jk	.	16ff\LL	.
16r	.	16r	.	16r	.	(64aan\LL	.
.	.	.	.	.	.	64bb-\	.
.	.	.	.	.	.	64ccc\	.
.	.	.	.	.	.	64bb-\JJJJ)	.
8E-/L	.	8G/	.	8e-/	.	8ee-/L	.
16r	.	8r	.	8r	.	16r	.
16BB-/Jk	pp	.	.	.	.	16B-/Jk	pp
=17	=17	=17	=17	=17	=17	=17	=17
8B-\L	.	4r	.	2r	.	(8b-/L	.
16G-\L	.	.	.	.	.	16g-/L	.
16D\JJ	.	.	.	.	.	16d/JJ	.
8E-/L	.	8r	.	.	.	8e-/L	.
16BB-/L	.	16r	.	.	.	16B-/L	.
16D/JJ	.	(16D/	pp	.	.	16d/JJ	.
=18	=18	=18	=18	=18	=18	=18	=18
16E-\LL	.	16E-/LL	.	2r	.	16e-/LL	.
16F\	.	16F/	.	.	.	16f/	.
16G-\	.	16G-/	.	.	.	16g-/	.
16An\JJ	.	16An/JJ	.	.	.	16an/JJ	.
16B-\LL	.	16B-\LL	.	.	.	16b-\LL	.
16c\	.	16c\	.	.	.	16cc\	.
16d-\	.	16d-\	.	.	.	16dd-\	.
16en\JJ	.	16en\JJ)	.	.	.	16een\JJ)	.
=19	=19	=19	=19	=19	=19	=19	=19
8f\L	<	8.f\L	<	(8f/L	pp	(8.ff\L	<
16d-\L	.	.	.	16b-/L	.	.	.
16An\JJ	.	[16f\Jk	.	16cc/JJ	.	16ee-\Jk	.
16B-\LL	.	(16f\LL]	.	16b-/LL	.	16dd-\LL	.
16F\	.	16An\	.	16e-/	.	16cc\	.
16G-\	.	16B-\	.	16d-/	.	16b-\	.
16E-\JJ	.	16e-\JJ)	.	16B-/JJ)	.	16g-\JJ)	.
=20	=20	=20	=20	=20	=20	=20	=20
16F/LK	pp	16d-\LK	pp	16B-/LK	pp	16f/LK	pp
16r	.	16r	.	16r	.	16r	.
16FF/Jk	.	16c\Jk	.	16An/Jk	.	16f/Jk	.
16r	.	16r	.	16r	.	16r	.
8BB-/	.	8B-/	.	8B-/L	.	8B-/	.
8r	.	8r	.	16r	.	8r	.
.	.	.	.	16B-/Jk	.	.	.
=21	=21	=21	=21	=21	=21	=21	=21
2r	.	2r	.	(8b-/L	pp	(32ee-\LLL	pp
.	.	.	.	.	.	32ff\	.
.	.	.	.	.	.	32gg-\	.
.	.	.	.	.	.	32aa-\JJJ	.
.	.	.	.	16g-/L	.	32bb-\LLL	.
.	.	.	.	.	.	32ccc-\	.
.	.	.	.	16d/JJ	.	32bb-\	.
.	.	.	.	.	.	32aa-\JJJ)	.
.	.	.	.	8e-/L	.	(32aa-\LLL	.
.	.	.	.	.	.	32gg-\	.
.	.	.	.	.	.	32ff\	.
.	.	.	.	.	.	32ee-\JJJ	.
.	.	.	.	16B-/L	.	32dd\LLL	.
.	.	.	.	.	.	32cc-\	.
.	.	.	.	16d/JJ	.	32b-\	.
.	.	.	.	.	.	32a-\JJJ)	.
=22	=22	=22	=22	=22	=22	=22	=22
4r	.	4r	.	16e-/LL	.	(32g-\LLL	.
.	.	.	.	.	.	32dd\	.
.	.	.	.	16f/	.	32ee-\	.
.	.	.	.	.	.	32dd\JJJ	.
.	.	.	.	16g-/	.	32ee-\LLL	.
.	.	.	.	.	.	32gg-\	.
.	.	.	.	16an/JJ	.	32ff\	.
.	.	.	.	.	.	32ee-\JJJ)	.
16BB-/LL	p	(16B-\LL	p	32b-/LLL	.	(32dd-\LLL	.
.	.	.	.	32an/	.	32aan\	.
16C/	.	16c\	.	32b-/	.	32bb-\	.
.	.	.	.	32an/JJJ	.	32aan\JJJ	.
16D-/	.	16d-\	.	32b-\LLL	.	32bb-\LLL	.
.	.	.	.	32dd-\	.	32ddd-\	.
16En/JJ	.	16en\JJ)	.	32cc\	.	32ccc\	.
.	.	.	.	32b-\JJJ)	.	32bb-\JJJ)	.
=23	=23	=23	=23	=23	=23	=23	=23
8F/L	<	(8f\L	<	(32an\LLL	<	(32aan\LLL	<
.	.	.	.	32een\	.	32eeen\	.
.	.	.	.	32ff\	.	32fff\	.
.	.	.	.	32een\JJJ	.	32eeen\JJJ	.
16D-/L	.	16d-\L	.	32ff\LLL	.	32fff\LLL	.
.	.	.	.	32gg-\	.	32ggg-\	.
16AAn/JJ	.	16An\JJ	.	32ff\	.	32fff\	.
.	.	.	.	32ee-\JJJ)	.	32eee-\JJJ)	.
16BB-/LL	.	16B-/LL	.	(32dd-\LLL	.	(32ddd-\LLL	.
.	.	.	.	32cc\	.	32ccc\	.
16FF/	.	16F/	.	32b-\	.	32bb-\	.
.	.	.	.	32an\JJJ	.	32aan\JJJ	.
16GG-/	.	16G-/	.	32cc/LLL	.	32ccc\LLL	.
.	.	.	.	32b-/	.	32bb-\	.
16EE-/JJ	.	16E-/JJ)	.	32a-/	.	32aa-\	.
.	.	.	.	32g-/JJJ)	.	32gg-\JJJ)	.
=24	=24	=24	=24	=24	=24	=24	=24
16FF/LK	p	16F/LK	p	(32g-/LLL	p	(32gg\LLL	p
.	.	.	.	32f/	.	32ff\	.
16r	.	16r	.	32e-/	.	32ee-\	.
.	.	.	.	32d-/JJJ)	.	32dd-\JJJ)	.
16FF/Jk	.	16F/Jk	.	(32d-/LLL	.	(32dd-\LLL	.
.	.	.	.	32c/	.	32cc\	.
16r	.	16r	.	32e-/	.	32ee-\	.
.	.	.	.	32An/JJJ	.	32an\JJJ)	.
8BB-/L	.	8B-/	.	8B-/)	.	8b-\	.
16r	.	8r	.	8r	.	8r	.
16D-/Jk	.	.	.	.	.	.	.
=25	=25	=25	=25	=25	=25	=25	=25
8d-\L	.	8r	.	8r	.	8r	.
16B-\L	.	16r	.	8dd-\L	.	16r	.
16F\JJ	.	16d-\	.	.	.	(16aa-\	.
16G-\LL	.	(16d-\LL	.	[16dd-\Jk	.	(16bb-\LL)	.
32D\Jk	.	32f\Jk)	.	32dd-\LKK]	.	32aa-\Jk)	.
32r	.	32r	.	32r	.	32r	.
16G-\L	.	(16g-\L	.	[16dd-\L	.	(16bb-\L	.
32D\JJk	.	32f\JJk)	.	32dd-\JJk]	.	32aa-\JJk)	.
32r	.	32r	.	32r	.	32r	.
=26	=26	=26	=26	=26	=26	=26	=26
8B-\L	.	8r	.	8r	.	8r	.
16G-\L	.	16r	.	8b-\	.	16r	.
16D\JJ	.	16B-/	.	.	.	(16ff\	.
16E-/LL	<	(16B-\LL	<	[16b-/LL	<	(16gg-\LL)	.
32BB-/Jk	.	32d\Jk)	.	32b-/Jk]	.	32ff\Jk)	.
32r	.	32r	.	32r	.	32r	<
16E-/L	.	(16e-\L	.	16b-/L	.	(16gg-\L	.
32BB-/JJk	.	32d-\JJk)	.	32g/JJk	.	32eee-\JJk)	.
32r	.	32r	.	32r	.	32r	.
=27	=27	=27	=27	=27	=27	=27	=27
16C-/LL	.	(8.e-\L	.	(16a-\LL	.	(8eee-\L	.
16GG/	.	.	.	16dd-\	.	.	.
16AA-/	>	.	.	16cc-\	.	16ccc-\L	.
16EE-/JJ	>	16d-\Jk	>	16b-\JJ	.	16gg\JJ	>
16FF-/LL	.	16c-/LL	.	16a-/LL	.	16aa-\LL	.
16DD/	.	16B-/	.	16a-/	.	16ff\	.
16EE-/	.	16B-/	.	16g-/	.	16gg-\	.
16GG-/JJ	.	16G-/JJ)	.	16b-/JJ)	.	16ee-\JJ)	.
=28	=28	=28	=28	=28	=28	=28	=28
16AA-/LK	pp	16A-/LK	pp	16cc-\LK	pp	16ff-\LK	pp
16r	.	16r	.	16r	.	16r	.
16BB-/Jk	.	16F/Jk	.	16a-\Jk	.	16dd\Jk	.
16r	.	16r	.	16r	.	16r	.
8EE-/L	.	8E-/	.	8g-/	.	8ee-\	.
16r	.	8r	.	8r	.	8r	.
16D-/Jk	.	.	.	.	.	.	.
=29	=29	=29	=29	=29	=29	=29	=29
&((8d-\L&)	.	8.d-\L	.	32r	.	8r	.
.	.	.	.	(32cc\LLL	.	.	.
.	.	.	.	32dd-\	.	.	.
.	.	.	.	32cc\JJJ	.	.	.
16B-\L	.	.	.	32dd-\LLL	.	16r	.
.	.	.	.	32ee-\	.	.	.
16F\JJ)	.	32d-\LL	.	32dd-\	.	32aa-\LLL	.
.	.	32d-\JJJ	.	32cc-\JJJ)	.	32aa-\JJJ	.
16G-\LL	.	(32a-\LLL	.	(32cc-/LLL	.	(32ccc-\LLL	.
.	.	32g-\)	.	32b-/)	.	32bb-\)	.
32D-\Jk	.	32f\	.	32a-/	.	32aa-\	.
32r	.	32f\JJJ	.	32a-/JJJ	.	32aa-\JJJ	.
16G-\L	.	(32a-\LLL	.	(32cc-/LLL	.	(32ccc-\LLL	.
.	.	32g-\)	.	32b-/)	.	32bb-\)	.
32D-\JJk	.	32f\	.	32a-/	.	32aa-\	.
32r	.	32f\JJJ	.	32a-/JJJ	.	32aa-\JJJ	.
=30	=30	=30	=30	=30	=30	=30	=30
8B-\L	.	8.B-/L	.	32r	.	8r	.
.	.	.	.	(32an/LLL	.	.	.
.	.	.	.	32b-/	.	.	.
.	.	.	.	32an/	.	.	.
16G-\L	.	.	.	32b-/JJJ	.	16r	.
.	.	.	.	32cc-\LLL	.	.	.
16D\JJ	.	32B-/LL	.	32b-\	.	32ff\LLL	.
.	.	32B-/JJJ	.	32a-\JJJ)	.	32ff\JJJ	.
16E-/LL	.	(32f\LLL	.	(32a-/LLL	.	(32aa-\LLL	.
.	.	32e-\)	.	32g-/)	.	32gg-\)	.
32BB-/Jk	.	32d\	.	32f/	.	32ff\	.
32r	.	32d\JJJ	.	32f/JJJ	.	32ff\JJJ	.
16E-/L	.	(32f\LLL	.	(32a-/LLL	.	(32aa-\LLL	.
.	.	32e-\)	.	32g-/)	.	32gg-\)	.
16BB-/JJ	.	32d-\	.	32g/	.	32eee-\	.
.	.	32d-\JJJ	.	32g/JJJ	.	32eee-\JJJ	.
=31	=31	=31	=31	=31	=31	=31	=31
16C-/LL	.	(8e-/L	.	(32a-\LLL	.	(32eee-\LLL	.
.	.	.	.	32dd\	.	32ddd\	.
16GG/	.	.	.	32ee-\	.	32eee-\	.
.	.	.	.	32ff-\JJJ	.	32fff-\JJJ	.
16AA-/	.	16c-/L	.	32ee-\LLL	.	32eee-\LLL	.
.	.	.	.	32dd-\	.	32ddd-\	.
16EE-/JJ	.	16G/JJ	.	32cc-\	.	32ccc-\	.
.	.	.	.	32b-\JJJ)	.	32bb-\JJJ)	.
16FF-/LL	.	16A-/LL	.	(32dd-\LLL	.	(32ddd-\LLL	.
.	.	.	.	32cc-\	.	32ccc-\	.
16DD/	.	16F/	.	32b-\	.	32bb-\	.
.	.	.	.	32a-\JJJ)	.	32aa-\JJJ)	.
16EE-/	.	16G-/	.	(32a-/LLL	.	(32aa-\LLL	.
.	.	.	.	32g-/	.	32gg-\	.
16GG-/JJ	.	16B-/JJ)	.	32f/	.	32ff\	.
.	.	.	.	32e-/JJJ)	.	32ee-\JJJ)	.
=32	=32	=32	=32	=32	=32	=32	=32
16AA-/LK	pp	16c-/LK	pp	16f-/LK	pp	16ff-\LK	pp
16r	.	16r	.	16r	.	16r	.
16BB-/Jk	.	16A-/Jk	.	16d/Jk	.	16dd\Jk	.
16r	.	16r	.	16r	.	16r	.
8C-/	.	8G-/	.	8e-/L	.	8ee-\	.
8r	.	8r	.	16r	.	8r	.
.	.	.	.	16e-/Jk	.	.	.
=33	=33	=33	=33	=33	=33	=33	=33
2r	.	(16cc-\LL	pp	(16ee-\LL	pp	32r	pp
.	.	.	.	.	.	(32ddd\LLL	.
.	.	16g\	.	16b-\	.	32eee-\	.
.	.	.	.	.	.	32fff-\JJJ	.
.	.	16a-\	.	16cc-\	.	32eee-\LLL	.
.	.	.	.	.	.	32ddd-\	.
.	.	16e-\JJ	.	16g\JJ	.	32ccc-\	.
.	.	.	.	.	.	32bb-\JJJ)	.
.	.	16f-\LL	.	16a-/LL	.	(32ddd-\LLL	.
.	.	.	.	.	.	32ccc-\	.
.	.	16d\	.	16f/	.	32bb-\	.
.	.	.	.	.	.	32aa-\JJJ)	.
.	.	16e-\	.	16g-/	.	(32aa-\LLL	.
.	.	.	.	.	.	32gg-\	.
.	.	16G-\JJ)	.	16B-/JJ)	.	32ff\	.
.	.	.	.	.	.	32ee-\JJJ)	.
=34	=34	=34	=34	=34	=34	=34	=34
4r	.	8A-/	.	8c-/	.	8ff-\	.
.	.	8r	.	8r	.	8r	.
16AAn/LK	pp	16An/LK	pp	16c/LK	pp	16g-\LK 16ee-\	pp
16r	.	16r	.	16r	.	16r	.
16AAn/Jk	.	16An/Jk	.	16c/Jk	.	16g-\Jk 16ee-\	.
16r	.	16r	.	16r	.	16r	.
=35	=35	=35	=35	=35	=35	=35	=35
8BB-\L	.	(16B-\LL	.	8d/	.	8f/ 8dd/	.
.	.	16b-\JJ)	.	.	.	.	.
8r	.	(16b-\LL	.	8r	.	8r	.
.	.	64an\LL	.	.	.	.	.
.	.	64b-\	.	.	.	.	.
.	.	64cc-\	.	.	.	.	.
.	.	64b-\JJJJ)	.	.	.	.	.
8B-\J	.	4b-\	.	(16B-/LL	.	(16g-\LL	.
.	.	.	.	16g-/JJ)	.	16ee-\JJ)	.
8r	.	.	.	(16g-/LL	.	(16ee-\LL	.
.	.	.	.	64f/LL	.	64dd\LL	.
.	.	.	.	64g-/	.	64ee-\	.
.	.	.	.	64a-/	.	64ff\)	.
.	.	.	.	64g-/JJJJ)	.	64ee-\JJJJ	.
=36	=36	=36	=36	=36	=36	=36	=36
8BB-/	.	(16B-\LL	.	16f/	.	16dd\	.
.	.	16b-\JJ)	.	16r	.	16r	.
8r	.	(16b-\LL	.	8r	.	8r	.
.	.	64an\LL	.	.	.	.	.
.	.	64b-\	.	.	.	.	.
.	.	64cc-\)	.	.	.	.	.
.	.	64b-\JJJJ	.	.	.	.	.
8B-\	.	[4b-\	.	(16B-/LL	.	(16b-\LL	.
.	.	.	.	16e-/JJ)	.	16gg-\JJ)	.
8r	.	.	.	(16e-/LL	.	(16gg-\LL	.
.	.	.	.	64d/LL	.	64ff\LL	.
.	.	.	.	64e-/	.	64gg-\	.
.	.	.	.	64f/	.	64aa-\	.
.	.	.	.	64e-/JJJJ)	.	64gg-\JJJJ)	.
=37	=37	=37	=37	=37	=37	=37	=37
16B-\LK	.	16b-\LL]	.	16d/LL	.	16ff\LL	.
16r	.	16dd\J	.	16ff/J	.	16bb-\J	.
*clefC4	*clefG2	*	*	*	*	*	*
16b-\Jk	.	16r	.	16r	.	16r	.
16r	.	16cc\k	.	16ee-/k	.	16aa-\k	.
16b-\LK	.	16r	.	16r	.	16r	.
16r	.	16b-\k	.	16dd/k	.	16gg\k	.
16b-\Jk	.	16r	.	16r	.	16r	.
16r	.	16a-\Jk	.	16cc/Jk	.	16ff\Jk	.
=38	=38	=38	=38	=38	=38	=38	=38
*clefF4	*clefF4	*	*	*	*	*	*
32r	.	32g\LKK	.	32b-/LKK	.	32ee-/LKK	.
32B-\LKK	.	32r	.	32r	.	32r	.
32r	.	32f\kk	.	32a-/kk	.	32dd/kk	.
32B-\kk	.	32r	.	32r	.	32r	.
32r	.	32e-\kk	.	32g/kk	.	32cc/kk	.
32B-\kk	.	32r	.	32r	.	32r	.
32r	.	32d\kk	.	32f/kk	.	32b-/kk	.
32B-\kk	.	32r	.	32r	.	32r	.
32r	.	32c\kk	.	32e-/kk	.	32a-/kk	.
32BB-\kk	.	32r	.	32r	.	32r	.
32r	.	32B-\kk	.	32d/kk	.	32g/kk	.
32BB-\kk	.	32r	.	32r	.	32r	.
32r	.	32A-\kk	.	32c/kk	.	32f/kk	.
32BB-\kk	.	32r	.	32r	.	32r	.
32r	.	32G\Jkk	.	32B-/Jkk	.	32e-/Jkk	.
32BB-\Jkk	.	32r	.	32r	.	32r	.
=39	=39	=39	=39	=39	=39	=39	=39
16r	.	(8F/L	.	(8A-/L	.	(8d/L	.
16BB-/LK	.	.	.	.	.	.	.
16r	.	8G/J	<	8B-/J	.	8en/J	<
16BB-/k	.	.	.	.	.	.	.
16r	.	8A-/L)	.	8c/L)	.	8f/L)	.
16BB-/L	.	.	.	.	.	.	.
16BB-/	.	(16G/L	>	(16B-/L	.	(16e-/L	>
16BB-/JJ	.	16G-/JJ)	.	16An/JJ)	.	16e-/JJ)	.
=40	=40	=40	=40	=40	=40	=40	=40
16r	.	(8F/L	<	(8A-/L	.	(8d/L	.
16BB-/LK	.	.	.	.	.	.	.
16r	.	8G/J	<	8B-/J	.	8en/J	<
16BB-/k	.	.	.	.	.	.	.
16r	.	8A-/L)	>	8c/L)	.	8f/L)	.
16BB-/L	.	.	.	.	.	.	.
16BB-/	.	(16G/L	>	(16B-/L	.	(16e-/L	>
16BB-/JJ	.	16G-/JJ)	.	16An/JJ)	.	16e-/JJ)	.
=41	=41	=41	=41	=41	=41	=41	=41
16r	.	16F/LL	p	16A-/LL	p	8.d/L	p
16BB-\LK	p	16F/J	.	16A-/J	.	.	.
8r	.	8r	.	8r	.	.	.
.	.	.	.	.	.	(64en/LLL	.
.	.	.	.	.	.	64f/	.
.	.	.	.	.	.	64g/	.
.	.	.	.	.	.	64f/JJJJ)	.
16r	.	16r	.	16r	.	8.d/L	.
16B-\Jk	.	16f/Jk	.	16a-/Jk	.	.	.
8r	.	8r	.	8r	.	.	.
.	.	.	.	.	.	(64g/LLL	.
.	.	.	.	.	.	64a-/	.
.	.	.	.	.	.	64b-/)	.
.	.	.	.	.	.	64a-/JJJJ	.
=42	=42	=42	=42	=42	=42	=42	=42
16r	.	16r	.	16r	.	8.d/L	.
16B-\	.	16f\	.	16a-/	.	.	.
8r	.	8r	.	8r	.	.	.
.	.	.	.	.	.	(64bn/LLL	.
.	.	.	.	.	.	64cc/	.
.	.	.	.	.	.	64dd/	.
.	.	.	.	.	.	64cc/JJJJ)	.
16B-\LK	.	16f\LK	.	16a-/LK	.	16d/LL	.
16r	.	16r	.	16r	.	(64bn/LL	.
.	.	.	.	.	.	64cc/	.
.	.	.	.	.	.	64dd/	.
.	.	.	.	.	.	64cc/JJJJ)	.
16B-\Jk	.	16f\Jk	.	16a-/Jk	.	16d/LL	.
16r	.	16r	.	16r	.	(64bn/LL	.
.	.	.	.	.	.	64cc/	.
.	.	.	.	.	.	64dd/	.
.	.	.	.	.	.	64cc/JJJJ)	.
=43	=43	=43	=43	=43	=43	=43	=43
16BB-/	.	8F/	.	16A-/	.	(48d/LLL	.
.	.	.	.	.	.	48e-/	.
.	.	.	.	.	.	48en/	.
16r	.	.	.	16r	.	48f/	.
.	.	.	.	.	.	48f#/	.
.	.	.	.	.	.	48g/JJJ	.
8r	.	8r	.	8r	.	48a-\LLL	.
.	.	.	.	.	.	48an\	.
.	.	.	.	.	.	48b-\	.
.	.	.	.	.	.	48bn\	.
.	.	.	.	.	.	48cc\	.
.	.	.	.	.	.	48cc#\JJJ	.
4r	.	4r	.	4r	.	48dd\LLL	.
.	.	.	.	.	.	48ee-\	.
.	.	.	.	.	.	48een\	.
.	.	.	.	.	.	48ff\	.
.	.	.	.	.	.	48ff#\	.
.	.	.	.	.	.	48gg\JJJ	.
.	.	.	.	.	.	48aa-\LLL	.
.	.	.	.	.	.	48aan\	.
.	.	.	.	.	.	48bb-\	.
.	.	.	.	.	.	48bbn\	.
.	.	.	.	.	.	48ddd\	.
.	.	.	.	.	.	48ccc\JJJ)	.
=44	=44	=44	=44	=44	=44	=44	=44
4r	.	4r	.	4r	.	(32bb-\LLL	<
.	.	.	.	.	.	32aa-\	.
.	.	.	.	.	.	32gg\	.
.	.	.	.	.	.	32ff\JJJ	.
.	.	.	.	.	.	32een\LLL	.
.	.	.	.	.	.	32ff\	.
.	.	.	.	.	.	32aa-\	.
.	.	.	.	.	.	32ff\JJJ	.
16r	.	16r	.	16r	.	32ee-\LLL	.
.	.	.	.	.	.	32dd\	.
16B-\LL	.	(16f\LL	<	(16a-/LL	<	32cc\	.
.	.	.	.	.	.	32b-\JJJ	.
16B-\	.	16f\	.	16a-/	.	32an\LLL	.
.	.	.	.	.	.	32b-\	.
16B-\JJ	.	16f\JJ)	.	16a-/JJ)	.	32cc\	.
.	.	.	.	.	.	32dd\JJJ)	.
=45	=45	=45	=45	=45	=45	=45	=45
8E-\	p	8e-/L	p	8B-/L 8g/	p	(16ee-\LL	p
.	.	.	.	.	.	16gg\)	.
8r	.	8r	.	16r	.	16gg\	.
.	.	.	.	(64an/LLL	.	16gg\JJ	.
.	.	.	.	64b-/	.	.	.
.	.	.	.	64cc/	.	.	.
.	.	.	.	64b-/JJJJ)	.	.	.
4r	.	8r	.	8e-/	.	(16gg\LL	.
.	.	.	.	.	.	16bb-\)	.
.	.	16r	.	8r	.	16bb-\	.
.	.	(64D/LLL	.	.	.	16bb-\JJ	.
.	.	64E-/	.	.	.	.	.
.	.	64F/	.	.	.	.	.
.	.	64E-/JJJJ)	.	.	.	.	.
=46	=46	=46	=46	=46	=46	=46	=46
4r	.	8D/	.	8r	.	(16bb-\LL	.
.	.	.	.	.	.	16aa-\)	.
.	.	8r	.	16r	.	(16aa-\	.
.	.	.	.	(64An/LLLL	.	16ff\JJ)	.
.	.	.	.	64B-/	.	.	.
.	.	.	.	64c/	.	.	.
.	.	.	.	64B-/JJJJ)	.	.	.
8r	.	4r	.	8an/	.	(16ff\LL	.
.	.	.	.	.	.	16dd\)	.
16r	.	.	.	8r	.	(16dd\	.
64G\LLLL	.	.	.	.	.	16b-\JJ)	.
64A-\	.	.	.	.	.	.	.
64B-\	.	.	.	.	.	.	.
64A-\JJJJ	.	.	.	.	.	.	.
=47	=47	=47	=47	=47	=47	=47	=47
8G\	.	8r	.	8r	.	(16b-\LL	.
.	.	.	.	.	.	16ee-\JJ)	.
8r	.	8B-/L	.	8G/L 8e-/	.	16ee-\LL	.
.	.	.	.	.	.	(64dd\LL	.
.	.	.	.	.	.	64ee-\	.
.	.	.	.	.	.	64ff\	.
.	.	.	.	.	.	64ee-\JJJJ)	.
8D\	.	8r	.	8r	.	(16b-\LL	.
.	.	.	.	.	.	16ff\JJ)	.
8r	.	8B-/J	.	8f/J	.	16ff\LL	.
.	.	.	.	.	.	(64een\LL	.
.	.	.	.	.	.	64ff\	.
.	.	.	.	.	.	64gg\	.
.	.	.	.	.	.	64ff\JJJJ)	.
=48	=48	=48	=48	=48	=48	=48	=48
16E-/LK	.	16e-\LK	.	16B-/LK 16g/	.	16b-\LL	.
16r	.	16r	.	16r	.	(64ff#\LL	.
.	.	.	.	.	.	64gg\	.
.	.	.	.	.	.	64aa-\	.
.	.	.	.	.	.	64gg\JJJJ)	.
16AA-/k	.	16f\k	.	16c/Jk 16a-/	.	16cc\LL	.
16r	.	16r	.	16r	.	(32aa-\L	.
.	.	.	.	.	.	64bb-\L	.
.	.	.	.	.	.	64ccc\JJJJ)	.
16BB-/Jk	.	16d\Jk	.	16B-/LL 16f/	.	16ff\	.
16r	.	16r	.	32b-/L	.	8.r	.
.	.	.	.	32b-/JJJ	.	.	.
8r	.	8r	.	(32an/LLL	.	.	.
.	.	.	.	32a-/	.	.	.
.	.	.	.	32g/)	.	.	.
.	.	.	.	32f/JJJ	.	.	.
=49	=49	=49	=49	=49	=49	=49	=49
8EE-/	.	(16G/LL	p	(16e-/LL	p	32r	p
.	.	.	.	.	.	32bb-\LKK	.
.	.	16B-/)	.	16g/)	.	32r	.
.	.	.	.	.	.	32gg\kk	.
8r	.	(16B-/	.	(16g/	.	32r	.
.	.	.	.	.	.	32ee-\LL	.
.	.	16B-/JJ)	.	16g/JJ)	.	32b-\	.
.	.	.	.	.	.	32g\JJJ	.
16E-\LL	.	(16B-/LL	.	(16g/LL	.	32e-\LLL	.
.	.	.	.	.	.	32bb-\JJ	.
16G\	.	16B-/	.	16b-/)	.	32r	.
.	.	.	.	.	.	32gg\kk	.
16G\	.	16B-/	.	(16b-/	.	32r	.
.	.	.	.	.	.	32ee-\Jkk	.
16G\JJ	.	16B-/JJ)	.	16b-/JJ)	.	48b-/LLL	.
.	.	.	.	.	.	48g/	.
.	.	.	.	.	.	48e-/JJJ	.
=50	=50	=50	=50	=50	=50	=50	=50
16A-\LL	.	16B-/LL	.	(16b-/LL	.	32d\LLL	.
.	.	.	.	.	.	32b-\JJ	.
16F\	.	16B-/	.	16a-/)	.	32r	.
.	.	.	.	.	.	32dd\kk	.
16F\	.	16B-/	.	(16a-/	.	32r	.
.	.	.	.	.	.	32ff\LL	.
16D\JJ	.	16B-/JJ	.	16f/JJ)	.	32bb-\	.
.	.	.	.	.	.	32ddd\JJJ	.
16D/LL	.	(16B-/LL	.	(16f/LL	.	32d\LLL	.
.	.	.	.	.	.	32ff\JJ	.
16BB-/	.	16F/)	.	16d/)	.	32r	.
.	.	.	.	.	.	32bb-\kk	.
16BB-/	.	(16F/	.	(16d/	.	32r	.
.	.	.	.	.	.	32ddd\LL	.
16AA-/JJ	.	16D/JJ)	.	16B-/JJ)	.	32fff\	.
.	.	.	.	.	.	32bbb-\JJJ	.
=51	=51	=51	=51	=51	=51	=51	=51
4GG/	.	[4E-/ 4B-/	.	(16B-/LL	.	32r	.
.	.	.	.	.	.	32bbb-\LKK	.
.	.	.	.	16e-/JJ)	.	32r	.
.	.	.	.	.	.	32ggg\kk	.
.	.	.	.	16e-/LL	.	32r	.
.	.	.	.	.	.	32eee-\LL	.
.	.	.	.	(64d/LL	.	32bb-\	.
.	.	.	.	64e-/	.	.	.
.	.	.	.	64f/	.	32gg\JJ	.
.	.	.	.	64e-/JJJJ)	.	.	.
4AA-/	.	4E-/] 4c/	.	(16c/LL	.	32r	.
.	.	.	.	.	.	32cccc\kk	.
.	.	.	.	16a-/JJ)	.	32r	.
.	.	.	.	.	.	32aaa-\kk	.
.	.	.	.	16a-/LL	.	32r	.
.	.	.	.	.	.	32fff\LL	.
.	.	.	.	(64g/LL	.	32ccc\	.
.	.	.	.	64a-/	.	.	.
.	.	.	.	64b-/	.	32aa-\JJJ	.
.	.	.	.	64a-/JJJJ)	.	.	.
=52	=52	=52	=52	=52	=52	=52	=52
16BB-/LK	.	16E-/LK 16B-/	.	16g/LL	.	32r	.
.	.	.	.	.	.	32gg\LKK	.
16r	.	16r	.	(64an/LL	.	32r	.
.	.	.	.	64b-/	.	.	.
.	.	.	.	64cc/	.	32bb-\kk	.
.	.	.	.	64b-/JJJJ)	.	.	.
16BB-/Jk	.	16A-/Jk 16d/	.	16f/LL	.	32r	.
.	.	.	.	.	.	32ff\kk	.
16r	.	16r	.	(64an/LL	.	32r	.
.	.	.	.	64b-/	.	.	.
.	.	.	.	64cc/)	.	32bb-\Jkk	.
.	.	.	.	64b-/JJJ	.	.	.
8E-\	.	8G/	.	8e-/J	.	8ee-\L	.
8r	.	8r	.	8r	.	16r	.
.	.	.	.	.	.	16b-\Jk	.
=53	=53	=53	=53	=53	=53	=53	=53
16.BB-/LL	.	(16.D/LL	.	(16.a-/LL	.	(16.ff\LL	.
32BB-/k	.	32E-/k)	.	32g/k)	.	32ee-\k)	.
16BB-/	.	(16F/	.	(16f/	.	(16dd\	.
16BB-/JJ	.	16G/JJ)	.	16e-/JJ)	.	16cc\JJ)	.
8.BB-/L	.	(8.A-/L	.	(8.d/L	.	8.b-\L	.
16BB-/Jk	.	16G/Jk)	.	16en/Jk)	.	16b-\Jk	.
=54	=54	=54	=54	=54	=54	=54	=54
16BB-/LL	.	(16A-/LL	.	(16f/LL	.	(16b-\LL	.
16BB-/	.	16F/)	.	16d/)	.	16b-\)	.
16BB-/	.	(16G/	.	(16e-/	.	(16b-\	.
16BB-/JJ	.	16An/JJ)	.	16e-/JJ)	.	16cc\JJ)	.
8BB-/	.	8B-/	.	(16.d/LL	.	(16.f/LL	.
.	.	.	.	64e-/LL	.	64g/LL	.
.	.	.	.	64f/JJJJ)	.	64an/JJJJ)	.
8r	.	8r	.	48g/LLL	.	48b-\LLL	.
.	.	.	.	48an/	.	48cc\	.
.	.	.	.	48b-/JJJ	.	48dd\JJJ	.
.	.	.	.	48cc\LLL	.	48ee-\LLL	.
.	.	.	.	48dd\	.	48ff\	.
.	.	.	.	48ee-\JJJ	.	48gg\JJJ	.
=55	=55	=55	=55	=55	=55	=55	=55
16.B-\LL	.	(16.d\LL	.	(16.ff\LL	.	(16.aa-\LL	.
32c\k	.	32e-\k)	.	32ee-\k)	.	32gg\k)	.
16d\	.	(16f\	.	(16dd\	.	(16ff\	.
16e-\JJ	.	16g\JJ)	.	16cc\JJ)	.	16ee-\JJ)	.
8.f\L	<	8.a-\L	<	(16b-\LL	.	8.dd\L	.
.	.	.	.	16cc-\	.	.	.
.	.	.	.	16b-\)	.	.	.
16f\Jk	>	16a-\Jk	>	16b-\JJ	.	16dd\Jk	<
=56	=56	=56	=56	=56	=56	=56	=56
8e-\L	.	(8g\L	.	(8b-\L	.	(16.ee-\LL	.
.	.	.	.	.	.	32ff\JJk)	<
8c\	<	8e-\	<	8ee-\	.	(16.gg\LL	.
.	.	.	.	.	.	32aan\JJk)	.
8B-\J	>	8f\J)	>	8dd\J)	>	(16.ccc\LL	.
.	.	.	.	.	.	32bb-\JJk	>
8r	.	8r	.	8r	.	32aan\LLL	.
.	.	.	.	.	.	32aa-\	.
.	.	.	.	.	.	32gg\	.
.	.	.	.	.	.	32ff\JJJ)	.
=57	=57	=57	=57	=57	=57	=57	=57
32EE-/LLL	.	4r	.	2G/ 2e-/	.	(16ee-\LL	.
32B-/JJ	.	.	.	.	.	.	.
32r	.	.	.	.	.	16gg\)	.
32G/kk	.	.	.	.	.	.	.
32r	.	.	.	.	.	16gg\JJ	.
32E-/LL	.	.	.	.	.	.	.
32BB-/	.	.	.	.	.	(96G/LLLL	.
.	.	.	.	.	.	96B-/	.
.	.	.	.	.	.	96e-/	.
32GG/JJJ	.	.	.	.	.	96g/	.
.	.	.	.	.	.	96b-/	.
.	.	.	.	.	.	96ee-/JJJJ)	.
8EE-/	.	32E-\LLL	.	.	.	(16gg\LL	.
.	.	32b-\JJ	.	.	.	.	.
.	.	32r	.	.	.	16bb-\)	.
.	.	32g\kk	.	.	.	.	.
8r	.	32r	.	.	.	16bb-\JJ	.
.	.	32B-\LL	.	.	.	.	.
.	.	32G\	.	.	.	(96e-\LLLL	.
.	.	.	.	.	.	96g\	.
.	.	.	.	.	.	96b-\	.
.	.	32E-\JJJ	.	.	.	96ee-\	.
.	.	.	.	.	.	96gg\	.
.	.	.	.	.	.	96bb-\JJJJ)	.
=58	=58	=58	=58	=58	=58	=58	=58
32DD/LLL	.	8D/	.	([4B-/ [4f/	.	(16bb-\LL	.
32B-/JJ	.	.	.	.	.	.	.
32r	.	.	.	.	.	32aa-\Jk)	.
32F/kk	.	.	.	.	.	64r	.
.	.	.	.	.	.	64aa-\Jkkk	.
32r	.	8r	.	.	.	(16aa-\LL	.
32F/LL	.	.	.	.	.	.	.
32D/	.	.	.	.	.	32ff\Jk)	.
32BB-/JJJ	.	.	.	.	.	64r	.
.	.	.	.	.	.	64ff\Jkkk	.
8AA-/	.	32D/LLL	.	8B-/L] 8f/]	.	(16ff\LL	.
.	.	32a-/JJ	.	.	.	.	.
.	.	32r	.	.	.	32dd\Jk)	.
.	.	32f/kk	.	.	.	64r	.
.	.	.	.	.	.	64dd\Jkkk	.
8r	.	32r	.	8d/J)	.	(16dd\LL	.
.	.	32f/LL	.	.	.	.	.
.	.	32d/	.	.	.	32b-\Jk)	.
.	.	32A-/JJJ	.	.	.	64r	.
.	.	.	.	.	.	64b-\Jkkk	.
=59	=59	=59	=59	=59	=59	=59	=59
*	*	*	*	*^	*	*	*
32GG\LLL	.	8G/	.	([4e-/	8B-\L	.	(16b-\LL	.
32B-\JJ	.	.	.	.	.	.	.	.
32r	.	.	.	.	.	.	16ee-\JJ)	.
32G\kk	.	.	.	.	.	.	.	.
32r	.	8r	.	.	8G\J	.	16ee-\LL	.
32E-\LL	.	.	.	.	.	.	.	.
32BB-\	.	.	.	.	.	.	(64dd\LL	.
.	.	.	.	.	.	.	64ee-\	.
32GG\JJJ	.	.	.	.	.	.	64ff\	.
.	.	.	.	.	.	.	64ee-\JJJJ)	.
8AA-/L	.	32A-\LLL	.	8e-/L]	4c\	.	(16cc\LL	.
.	.	32cc\JJ	.	.	.	.	.	.
.	.	32r	.	.	.	.	16aa-\JJ)	.
.	.	32a-\kk	.	.	.	.	.	.
32r	.	32r	.	8f/J)	.	.	16aa-\LL	.
32F/LL	.	32f\LL	.	.	.	.	.	.
32C/	.	32c\	.	.	.	.	(64gg\LL	.
.	.	.	.	.	.	.	64aa-\	.
32GG/JJJ	.	32A-\JJJ	.	.	.	.	64bb-\	.
.	.	.	.	.	.	.	64aa-\JJJJ)	.
*	*	*	*	*v	*v	*	*	*
=60	=60	=60	=60	=60	=60	=60	=60
16BB-/LK	.	16B-\LL	.	16r	.	16gg\LL	.
16r	.	16e-\J	.	16B-/LK 16g/	.	(64aa-\LL	.
.	.	.	.	.	.	64bb-\	.
.	.	.	.	.	.	64ccc\	.
.	.	.	.	.	.	64bb-\JJJJ)	.
16BB-/Jk	.	16r	.	16r	.	16ff\LL	.
16r	.	16d\Jk	.	16B-/Jk 16a-/	.	(64aa-\LL	.
.	.	.	.	.	.	64bb-\	.
.	.	.	.	.	.	64ccc\	.
.	.	.	.	.	.	64bb-\JJJJ)	.
8E-\	.	8e-\	.	8B-/L 8g/	.	8ee-\	.
8r	.	8r	.	16r	.	8r	.
.	.	.	.	16b-/Jk	.	.	.
=61	=61	=61	=61	=61	=61	=61	=61
16.B-\LL	.	(16.a-\LL	.	(16.ff\LL	.	2r	.
32B-\k	.	32g\k)	.	32ee-\k)	.	.	.
16B-\	.	(16f\	.	(16dd\	.	.	.
16B-\JJ	.	16e-\JJ)	.	16cc\JJ)	.	.	.
8.B-\L	<	8.d\L	<	(8.b-/L	<	.	.
16Bn\Jk	.	(16d\Jk	.	16a-/Jk)	.	.	.
=62	=62	=62	=62	=62	=62	=62	=62
16c\LL	.	16e-\LL	.	(16g/LL	.	4r	.
16Bn\	>	16d\	>	16a-/	>	.	.
16c\	.	16e-\)	.	16g/	.	.	.
16A-\JJ	.	16e-\JJ	.	16cc/JJ)	.	.	.
8B-\	.	8d\	.	8f/	.	8r	.
8r	.	8r	.	8r	.	16r	.
.	.	.	.	.	.	16b-\	.
=63	=63	=63	=63	=63	=63	=63	=63
16.B-\LL	<	(16.cc\LL	<	(16.ee-\LL	.	(16.aa-\LL	<
32B-\k	.	32b-\k)	.	32dd\k)	.	32gg\k)	.
16B-\	.	(16a-\	.	(16cc\	.	(16ff\	.
16B-\JJ	.	16g\JJ)	.	16b-\JJ)	.	16ee-\JJ)	.
8.B-\L	.	8.f\L	.	8.a-/L	.	(8.dd\L	.
16c-\Jk	.	16f\Jk	.	16a-/Jk	.	16ee-\Jk	.
=64	=64	=64	=64	=64	=64	=64	=64
16B-\LL	.	16f\LL	.	16a-/LL	.	16dd\LL	.
16c-\	.	16f\	.	16a-/	.	16ee-\	.
16B-\	.	16f\	.	16a-/	.	16dd\	.
16c-\JJ	.	16f\JJ	.	16a-/JJ	.	16ee-\JJ)	.
8B-\	.	8f\	.	8a-/	.	8dd\	.
8r	.	8r	.	8r	.	8r	.
=65	=65	=65	=65	=65	=65	=65	=65
8c\	p	8e-\	p	8g/	p	8ee-\	p
8r	.	8r	.	8r	.	8r	.
8AA-/	ff	8A-/	ff	8c/ 8e-/	ff	8A-/ 8e-/ 8cc/	ff
8r	.	8r	.	8r	.	8r	.
=66	=66	=66	=66	=66	=66	=66	=66
16BB-/LK	p	16B-/LK	p	16G/LK	p	16e-/LK	p
16r	.	16r	.	16r	.	16r	.
16BB-/k	.	16d/k	.	16A-/k	.	16f/k	.
16r	.	16r	.	16r	.	16r	.
16EE-/k	.	16B-/k	.	16G/k	.	16e-/Jk	.
16r	.	16r	.	16r	.	16r	.
16r	.	16r	.	16r	pp	8r	.
16GG/Jk	pp	16G/Jk	pp	16G/Jk	.	.	.
=67	=67	=67	=67	=67	=67	=67	=67
8G\L	.	(8g\L	.	(8g/L	.	2r	.
16E-\L	.	16e-\L	.	16e-/L	.	.	.
16BBn\JJ	.	16Bn\JJ	.	16Bn/JJ	.	.	.
8C/L	.	8c/L	.	8c/L	.	.	.
16GG/L	.	16G/L	.	16G/L	.	.	.
16BBn/JJ	.	16Bn/JJ	.	16Bn/JJ	.	.	.
=68	=68	=68	=68	=68	=68	=68	=68
16C\LL	.	16c\LL	.	16c/LL	.	4r	.
16D\	.	16d\	.	16d/	.	.	.
16E-\	.	16e-\	.	16e-/	.	.	.
16F#\JJ	.	16f#\JJ	.	16f#/JJ	.	.	.
8G\	.	8g\)	.	8g/)	.	8r	.
8r	.	8r	.	8r	.	16r	.
.	.	.	.	.	.	16g/	pp
=69	=69	=69	=69	=69	=69	=69	=69
8.CC/L 8.C/	pp	8.C/L 8.c/	pp	8.G/L 8.en/	pp	(8gg\L	.
.	.	.	.	.	.	16een\L	.
16CC/Jk 16C/	.	16C/Jk 16d/	.	16G/Jk 16f/	.	16bn\JJ)	.
8.CC/L 8.C/	<	8.C/L 8.c/	.	8.G/L 8.en/	<	(8cc/L	<
.	.	.	.	.	.	16g/L	.
16CC/Jk 16C/	.	16C/Jk 16d/	.	16G/Jk 16f/	.	16bn/JJ)	.
=70	=70	=70	=70	=70	=70	=70	=70
8.CC/L 8.C/	.	8.C/L 8.c/	.	8.G/L 8.en/	.	(8cc/L	.
.	.	.	.	.	.	16g/L	.
16CC/Jk 16C/	.	16C/Jk 16d/	.	16G/Jk 16f/	p	16bn/JJ)	.
16CC/LK 16C/	p	(16c\LL	p	16G/LL 16en/	.	[4cc\	p
8c/	.	16d\	.	(16f/	.	.	.
.	.	16e-\	.	16f#/	.	.	.
16Bn/Jk	.	16en\JJ	.	16g/JJ	.	.	.
=71	=71	=71	=71	=71	=71	=71	=71
16A-\LL	<	16f\LL)	<	(16a-/LL)	.	(16cc\LL]	<
16G\	.	16c\	.	16b-/	.	32dd\L	<
.	.	.	.	.	.	32een\J	.
16F\	.	16c\	.	16a-/	.	16ff\)	.
16E-\JJ	.	16c\JJ	.	16an/JJ	.	[16ff\JJ	.
16D/LL	.	(16f/LL	.	16b-\LL	.	(16ff\LL]	.
16C/	.	16F/)	.	16ee-\	.	32gg\L	.
.	.	.	.	.	.	32aan\	.
16BB-/	.	(16F/	.	16dd\	.	32bb-\	.
.	.	.	.	.	.	32ddd-\J	.
16AA-/JJ	.	16B-/JJ)	.	16ff\JJ)	.	16ddd\JJ)	.
=72	=72	=72	=72	=72	=72	=72	=72
8GG/	p	8B-/	p	8e-/ 8b-/	p	8eee-\	p
8r	.	8r	.	8r	.	8r	.
8AA-/	ff	8A-/	ff	8A-/ 8e-/ 8cc/	ff	8a-\ 8ee-\ 8ccc\	ff
8r	.	8r	.	8r	.	8r	.
=73	=73	=73	=73	=73	=73	=73	=73
16BB-/LK	pp	16B-/LK	pp	16G/LK	pp	16e-/LK	pp
16r	.	16r	.	16r	.	16r	.
16BB-/k	.	16d/k	.	16A-/k	.	16f/k	.
16r	.	16r	.	16r	.	16r	.
16EE-/Jk	.	16B-/k	.	16G/Jk	.	16e-/Jk	.
16r	.	16r	.	16r	.	16r	.
8r	.	16r	.	8r	.	8r	.
.	.	(64An/LLL	.	.	.	.	.
.	.	64B-/	.	.	.	.	.
.	.	64c/)	.	.	.	.	.
.	.	64B-/JJJJ	.	.	.	.	.
=74	=74	=74	=74	=74	=74	=74	=74
[4BB-\ 4A-\	.	8D/	.	8r	.	4r	.
.	.	8r	.	16r	.	.	.
.	.	.	.	(64an\LLLL	.	.	.
.	.	.	.	64b-\	.	.	.
.	.	.	.	64cc\	.	.	.
.	.	.	.	64b-\JJJJ)	.	.	.
4BB-\] 4G\	.	4r	.	8e-/	.	8r	.
.	.	.	.	8r	.	16r	.
.	.	.	.	.	.	(64aan\LLLL	.
.	.	.	.	.	.	64bb-\	.
.	.	.	.	.	.	64ccc\	.
.	.	.	.	.	.	64bb-\JJJJ)	.
=75	=75	=75	=75	=75	=75	=75	=75
16BB-/LK	.	16f\LK	.	16B-/LK 16a-/	.	16dd\LL	.
16r	.	16r	.	16r	.	(64aan\LL	.
.	.	.	.	.	.	64bb-\	.
.	.	.	.	.	.	64ccc\	.
.	.	.	.	.	.	64bb-\JJJJ)	.
16BB-/k	.	16f\k	.	16B-/k 16a-/	.	16dd\LL	.
16r	.	16r	.	16r	.	(64aan\LL	.
.	.	.	.	.	.	64bb-\	.
.	.	.	.	.	.	64ccc\	.
.	.	.	.	.	.	64bb-\JJJJ)	.
16E-/Jk	.	16e-\k	.	16B-/Jk 16g/	.	8ee-\	.
16r	.	16r	.	16r	.	.	.
8r	.	(64An\LLL	.	8r	.	8r	.
.	.	64B-\	.	.	.	.	.
.	.	64An\	.	.	.	.	.
.	.	64B-\	.	.	.	.	.
.	.	64An\	.	.	.	.	.
.	.	64B-\	.	.	.	.	.
.	.	64c\	.	.	.	.	.
.	.	64B-\JJJJ)	.	.	.	.	.
=76	=76	=76	=76	=76	=76	=76	=76
[4BB-\ 4A-\	.	8D/	.	8r	.	4r	.
.	.	8r	.	(64an/LLLL	.	.	.
.	.	.	.	64b-/	.	.	.
.	.	.	.	64an/	.	.	.
.	.	.	.	64b-/	.	.	.
.	.	.	.	64an/	.	.	.
.	.	.	.	64b-/	.	.	.
.	.	.	.	64cc/	.	.	.
.	.	.	.	64b-/JJJJ)	.	.	.
4BB-\] 4G\	.	4r	.	8e-/	.	8r	.
.	.	.	.	8r	.	(64aan\LLLL	.
.	.	.	.	.	.	64bb-\	.
.	.	.	.	.	.	64aan\	.
.	.	.	.	.	.	64bb-\	.
.	.	.	.	.	.	64aan\	.
.	.	.	.	.	.	64bb-\	.
.	.	.	.	.	.	64ccc\)	.
.	.	.	.	.	.	64bb-\JJJJ	.
=77	=77	=77	=77	=77	=77	=77	=77
16BB-/LK	.	16F/LK	.	16A-/LK 16d/	.	16dd\	.
16r	.	16r	.	16r	.	(96aan\LLLL	.
.	.	.	.	.	.	96bb-\	.
.	.	.	.	.	.	96ccc\	.
.	.	.	.	.	.	96bb-\	.
.	.	.	.	.	.	96aan\	.
.	.	.	.	.	.	96bb-\JJ)	.
16BB-/k	.	16F/k	.	16A-/k 16d/	.	16dd\JJ	.
16r	.	16r	.	16r	.	(96aan\LLLL	.
.	.	.	.	.	.	96bb-\	.
.	.	.	.	.	.	96ccc\	.
.	.	.	.	.	.	96bb-\	.
.	.	.	.	.	.	96aan\	.
.	.	.	.	.	.	96bb-\JJJJ)	.
16E-/Jk	.	16E-/Jk	.	16G/Jk 16e-/	.	8ee-\L	.
16r	.	16r	.	16r	.	.	.
8r	.	8r	.	8r	.	16r	.
.	.	.	.	.	.	(16gg\Jk	pp
=78	=78	=78	=78	=78	=78	=78	=78
2r	.	4r	.	8.r	.	8b-\L)	.
.	.	.	.	.	.	16r	.
.	.	.	.	(16e-/	.	(16ee-\Jk	.
.	.	8.r	.	8G/)	pp	8g/L)	.
.	.	.	.	8r	.	16r	.
.	.	(16B-/	.	.	.	(16b-/Jk	.
=79	=79	=79	=79	=79	=79	=79	=79
8r	.	8E-/)	.	8r	.	8e-/L)	.
8BB-/L	p	8A-/	p	8f/ 8dd/	p	8B-/J 8f/	p
8E-/J	.	8G/	.	8e-/ 8ee-/	.	8G/ 8e-/	.
8r	.	8r	.	8r	.	8r	.
==	==	==	==	==	==	==	==
*-	*-	*-	*-	*-	*-	*-	*-
!!!ENC: Craig Stuart Sapp
!!!END: 2006/02/13/
